src/images/Gutscheine.svg

<svg width="1300" height="1300" viewBox="0 0 1300 1300" fill="none" xmlns="http://www.w3.org/2000/svg">
<rect x="9" y="435.916" width="960" height="653" rx="173" transform="rotate(-24.8817 9 435.916)" fill="url(#paint0_linear)"/>
<path d="M862.995 167.651C859.395 168.151 852.195 170.151 846.995 171.951C838.495 174.851 243.795 437.051 231.495 443.251C210.695 453.751 195.195 472.551 187.495 496.551C182.595 511.751 182.895 534.151 188.095 549.451C189.195 552.451 213.795 608.651 242.795 674.351C276.795 751.351 296.695 795.351 298.995 798.351C309.495 812.151 327.295 817.751 344.295 812.551C365.295 806.051 377.695 782.651 371.095 761.851C370.095 758.651 345.995 703.451 317.595 639.151C289.195 574.751 266.095 521.551 266.195 520.751C266.395 519.951 267.595 518.451 268.995 517.451C272.495 514.851 873.595 249.551 875.795 249.551C876.895 249.551 878.395 250.351 879.195 251.251C881.695 254.151 1050 638.151 1050 640.951C1050 642.551 1049.1 644.051 1047.8 644.951C1046.5 645.751 1008.6 662.651 963.495 682.551C918.395 702.451 879.295 720.051 876.695 721.751C870.795 725.551 865.895 731.451 862.295 739.151C859.795 744.451 859.495 746.151 859.495 756.051C859.495 766.451 859.695 767.451 862.695 773.651C870.595 789.751 889.195 799.551 906.095 796.551C912.795 795.351 913.195 795.151 1013 751.051C1051.2 734.251 1085 719.051 1088 717.351C1109.1 705.551 1123.9 685.951 1130.6 661.051C1133.3 650.951 1133.1 628.951 1130.3 618.551C1127.3 607.851 954.895 215.751 949.295 207.151C937.495 188.851 918.695 175.351 897.195 169.951C886.395 167.151 872.295 166.251 862.995 167.651Z" fill="#374649"/>
<path d="M579.995 433.151C557.195 439.251 543.895 463.851 551.595 485.951C554.095 492.951 553.595 494.551 546.395 501.551C509.895 537.551 509.995 594.551 546.595 629.651C558.195 640.651 569.295 647.051 585.495 651.751C593.295 654.051 594.495 654.051 640.995 654.151C667.095 654.251 689.095 654.351 689.695 654.451C690.395 654.551 691.695 655.651 692.595 657.051C693.995 659.151 693.995 660.051 692.995 662.451C692.395 664.051 691.295 665.651 690.695 665.851C649.595 682.551 621.395 694.251 617.695 696.351C607.795 701.651 600.095 712.951 597.795 725.451C594.695 742.251 604.695 761.351 620.595 768.751C632.495 774.351 642.895 774.351 656.295 769.051C659.995 767.551 663.695 766.551 664.495 766.851C665.295 767.251 666.995 769.651 668.395 772.351C675.295 786.051 693.695 795.951 708.395 793.951C729.295 791.151 743.995 776.051 745.695 755.551C746.095 751.051 745.695 747.251 744.495 743.051C741.195 731.451 740.795 732.651 750.795 722.251C755.695 717.051 761.595 709.751 763.795 705.951C776.695 684.251 779.795 658.051 772.395 634.451C763.295 605.351 741.795 583.951 712.495 574.851L703.495 572.151L653.695 571.551C610.895 571.151 603.795 570.851 602.995 569.551C601.595 567.351 601.795 561.951 603.295 560.751C603.895 560.251 620.195 553.451 639.295 545.651C679.095 529.551 678.695 529.651 684.095 524.851C696.395 513.751 701.095 496.551 695.995 481.451C693.395 473.751 690.395 469.051 684.695 463.851C672.595 452.751 656.095 449.851 640.495 456.051C631.895 459.551 630.295 459.151 626.695 453.051C616.995 436.251 598.295 428.251 579.995 433.151Z" fill="#374649"/>
<path d="M277.695 874.551C239.195 881.051 210.095 911.851 209.995 946.251C209.995 949.651 212.195 965.851 214.895 982.251C217.695 998.651 224.895 1043.05 231.095 1081.05C237.195 1118.95 243.095 1152.35 244.195 1155.15C250.295 1171.85 264.795 1181.95 282.495 1181.85C304.595 1181.75 321.995 1165.75 323.695 1144.05C323.995 1139.45 320.895 1118.15 310.095 1051.85C299.495 987.351 296.195 965.051 296.895 963.251C297.495 961.851 298.895 959.751 300.095 958.651C302.395 956.551 302.995 956.551 352.995 956.551C407.195 956.551 406.295 956.451 408.995 961.551C409.495 962.551 413.795 1005.15 418.495 1056.25C423.595 1112.75 427.495 1150.75 428.395 1153.15C433.895 1168.85 445.595 1178.85 461.895 1181.65C478.295 1184.55 497.595 1174.35 504.595 1159.15C509.995 1147.35 510.095 1150.85 501.595 1057.45C497.295 1010.45 493.695 969.851 493.595 967.251C493.495 962.951 493.895 962.051 496.795 959.451L499.995 956.551H561.995C603.895 956.551 624.695 956.851 626.295 957.651C631.695 960.151 631.495 955.551 631.995 1057.15L632.495 1151.15L636.295 1158.75C649.195 1184.95 682.995 1190.15 702.895 1169.05C708.995 1162.55 712.495 1155.55 713.895 1146.55C714.595 1142.35 714.995 1108.15 714.995 1051.25V962.351L717.895 959.451L720.795 956.551H793.795C865.995 956.551 866.795 956.551 869.395 958.651C870.795 959.751 872.295 962.051 872.795 963.751C873.295 965.651 870.695 998.751 865.595 1054.65C858.295 1135.35 857.695 1143.05 858.895 1148.75C862.295 1165.25 874.295 1177.45 890.695 1181.15C896.795 1182.45 899.395 1182.65 904.595 1181.75C920.495 1179.15 933.195 1168.55 938.395 1153.75C939.395 1150.95 942.795 1118.05 947.995 1060.75C952.395 1011.95 956.295 969.851 956.595 967.151C957.095 963.551 957.995 961.351 959.995 959.351L962.795 956.551H1002.5C1046.1 956.551 1046.5 956.651 1049 962.551C1050.4 965.851 1049.8 969.451 1026.3 1113.05C1022.4 1136.95 1022 1140.75 1022.9 1146.35C1025.8 1164.65 1039.1 1178.25 1057.4 1181.65C1075.4 1184.95 1095.4 1173.55 1101.9 1156.15C1104.9 1148.05 1136 956.451 1136 946.051C1135.9 911.451 1108.6 882.051 1070 874.951C1063.7 873.851 997.895 873.651 672.495 873.751C457.995 873.751 280.295 874.151 277.695 874.551Z" fill="#374649"/>
<defs>
<linearGradient id="paint0_linear" x1="523.77" y1="476.416" x2="1077.32" y2="1188.18" gradientUnits="userSpaceOnUse">
<stop stop-color="#FAFAED"/>
<stop offset="1" stop-color="white" stop-opacity="0"/>
</linearGradient>
</defs>
</svg>

<svg fill="none" height="1300" viewBox="0 0 1300 1300" width="1300" xmlns="http://www.w3.org/2000/svg" xmlns:xlink="http://www.w3.org/1999/xlink"><linearGradient id="a" gradientUnits="userSpaceOnUse" x1="523.77" x2="1077.32" y1="476.416" y2="1188.18"><stop offset="0" stop-color="#fafaed"/><stop offset="1" stop-color="#fff" stop-opacity="0"/></linearGradient><rect fill="url(#a)" height="653" rx="173" transform="matrix(.90717844 -.42074609 .42074609 .90717844 -182.574557 44.249116)" width="960" x="9" y="435.916"/><g fill="#374649"><path d="m862.995 167.651c-3.6.5-10.8 2.5-16 4.3-8.5 2.9-603.2 265.1-615.5 271.3-20.8 10.5-36.3 29.3-44 53.3-4.9 15.2-4.6 37.6.6 52.9 1.1 3 25.7 59.2 54.7 124.9 34 77 53.9 121 56.2 124 10.5 13.8 28.3 19.4 45.3 14.2 21-6.5 33.4-29.9 26.8-50.7-1-3.2-25.1-58.4-53.5-122.7-28.4-64.4-51.5-117.6-51.4-118.4.2-.8 1.4-2.3 2.8-3.3 3.5-2.6 604.6-267.9 606.8-267.9 1.1 0 2.6.8 3.4 1.7 2.5 2.9 170.805 386.9 170.805 389.7 0 1.6-.9 3.1-2.2 4-1.3.8-39.2 17.7-84.305 37.6-45.1 19.9-84.2 37.5-86.8 39.2-5.9 3.8-10.8 9.7-14.4 17.4-2.5 5.3-2.8 7-2.8 16.9 0 10.4.2 11.4 3.2 17.6 7.9 16.1 26.5 25.9 43.4 22.9 6.7-1.2 7.1-1.4 106.905-45.5 38.2-16.8 72-32 75-33.7 21.1-11.8 35.9-31.4 42.6-56.3 2.7-10.1 2.5-32.1-.3-42.5-3-10.7-175.405-402.8-181.005-411.4-11.8-18.3-30.6-31.8-52.1-37.2-10.8-2.8-24.9-3.7-34.2-2.3z"/><path d="m579.995 433.151c-22.8 6.1-36.1 30.7-28.4 52.8 2.5 7 2 8.6-5.2 15.6-36.5 36-36.4 93 .2 128.1 11.6 11 22.7 17.4 38.9 22.1 7.8 2.3 9 2.3 55.5 2.4 26.1.1 48.1.2 48.7.3.7.1 2 1.2 2.9 2.6 1.4 2.1 1.4 3 .4 5.4-.6 1.6-1.7 3.2-2.3 3.4-41.1 16.7-69.3 28.4-73 30.5-9.9 5.3-17.6 16.6-19.9 29.1-3.1 16.8 6.9 35.9 22.8 43.3 11.9 5.6 22.3 5.6 35.7.3 3.7-1.5 7.4-2.5 8.2-2.2.8.4 2.5 2.8 3.9 5.5 6.9 13.7 25.3 23.6 40 21.6 20.9-2.8 35.6-17.9 37.3-38.4.4-4.5 0-8.3-1.2-12.5-3.3-11.6-3.7-10.4 6.3-20.8 4.9-5.2 10.8-12.5 13-16.3 12.9-21.7 16-47.9 8.6-71.5-9.1-29.1-30.6-50.5-59.9-59.6l-9-2.7-49.8-.6c-42.8-.4-49.9-.7-50.7-2-1.4-2.2-1.2-7.6.3-8.8.6-.5 16.9-7.3 36-15.1 39.8-16.1 39.4-16 44.8-20.8 12.3-11.1 17-28.3 11.9-43.4-2.6-7.7-5.6-12.4-11.3-17.6-12.1-11.1-28.6-14-44.2-7.8-8.6 3.5-10.2 3.1-13.8-3-9.7-16.8-28.4-24.8-46.7-19.9z"/><path d="m277.695 874.551c-38.5 6.5-67.6 37.3-67.7 71.7 0 3.4 2.2 19.6 4.9 36 2.8 16.4 10 60.799 16.2 98.799 6.1 37.9 12 71.3 13.1 74.1 6.1 16.7 20.6 26.8 38.3 26.7 22.1-.1 39.5-16.1 41.2-37.8.3-4.6-2.8-25.9-13.6-92.2-10.6-64.499-13.9-86.799-13.2-88.599.6-1.4 2-3.5 3.2-4.6 2.3-2.1 2.9-2.1 52.9-2.1 54.2 0 53.3-.1 56 5 .5 1 4.8 43.599 9.5 94.699 5.1 56.5 9 94.5 9.9 96.9 5.5 15.7 17.2 25.7 33.5 28.5 16.4 2.9 35.7-7.3 42.7-22.5 5.4-11.8 5.5-8.3-3-101.7-4.3-47-7.9-87.599-8-90.199-.1-4.3.3-5.2 3.2-7.8l3.2-2.9h62c41.9 0 62.7.3 64.3 1.1 5.4 2.5 5.2-2.1 5.7 99.499l.5 94 3.8 7.6c12.9 26.2 46.7 31.4 66.6 10.3 6.1-6.5 9.6-13.5 11-22.5.7-4.2 1.1-38.4 1.1-95.3v-88.899l2.9-2.9 2.9-2.9h73c72.2 0 73 0 75.6 2.1 1.4 1.1 2.9 3.4 3.4 5.1.5 1.9-2.1 35-7.2 90.899-7.3 80.7-7.9 88.4-6.7 94.1 3.4 16.5 15.4 28.7 31.8 32.4 6.1 1.3 8.7 1.5 13.9.6 15.9-2.6 28.6-13.2 33.8-28 1-2.8 4.4-35.7 9.6-93 4.4-48.8 8.3-90.899 8.6-93.599.5-3.6 1.4-5.8 3.4-7.8l2.8-2.8h39.705c43.6 0 44 .1 46.5 6 1.4 3.3.8 6.9-22.7 150.499-3.9 23.9-4.3 27.7-3.4 33.3 2.9 18.3 16.2 31.9 34.5 35.3 18 3.3 38-8.1 44.5-25.5 3-8.1 34.1-199.699 34.1-210.099-.1-34.6-27.4-64-66-71.1-6.3-1.1-72.105-1.3-397.505-1.2-214.5 0-392.2.4-394.8.8z"/></g></svg>
